lib/brands/icons/lambdatest.svg

<svg xmlns="http://www.w3.org/2000/svg" fill="none" aria-hidden="true" viewBox="0 0 48 48"><g id="lambdatest-Icon"><path id="Fills" fill="black" d="M19.7052 33.9989V36.8311C19.7052 37.431 19.05 37.801 18.5282 37.486L17.211 36.6401L16.8959 36.4623C16.8735 36.4496 15.0522 35.3964 11.0948 33.1078L10.7804 32.9275C10.4705 32.7485 10.2163 32.4926 10.0406 32.1836C9.86685 31.877 9.77643 31.529 9.77983 31.1833L9.77832 24.1301V17.0657C9.77832 16.6906 9.88421 16.3245 10.0814 16.0097C10.2764 15.6939 10.5587 15.4344 10.8522 15.2925L16.5742 11.985L16.8867 11.8021C16.9906 11.7426 16.9906 11.7426 17.202 11.6222L22.6826 8.45745L23.0023 8.268C23.3359 8.07579 23.7133 7.98436 24.0958 8.00219C24.4673 8.02022 24.8335 8.14199 25.0902 8.32474L30.7931 11.621L31.1091 11.7993C31.132 11.8125 33.034 12.9125 36.9064 15.1518L37.2225 15.3327C37.5323 15.512 37.7859 15.7676 37.9615 16.0766C38.1349 16.3824 38.2253 16.7303 38.2224 17.077L38.2236 23.4996C38.2237 24.0932 37.5809 24.4641 37.0671 24.167L34.6064 22.7444C34.3682 22.6067 34.2215 22.3523 34.2215 22.0771V18.2181L29.2115 15.3206C29.1682 15.2991 29.0707 15.2434 28.7997 15.0864L24.0007 12.3083L19.0077 15.1926C18.9599 15.2241 18.9599 15.2241 18.9312 15.2423C18.9197 15.2494 18.8019 15.318 18.5778 15.448L13.7807 18.2184V30.0419L18.793 32.9404C18.8251 32.9565 18.894 32.9959 19.2136 33.1804L19.3169 33.2721L19.4025 33.3865C19.5922 33.5315 19.7052 33.7574 19.7052 33.9989ZM34.2215 26.7197C34.2215 26.1267 34.8631 25.7558 35.3769 26.0518L37.8375 27.4692C38.0764 27.6068 38.2236 27.8615 38.2236 28.1371V30.4838C38.2236 30.6849 38.145 30.878 38.0042 31.0223L36.8442 32.2051C36.4092 32.7612 35.7705 32.9824 35.2006 32.6541L26.0573 27.3531L26.055 37.3553C26.0872 37.7306 25.9322 38.0978 25.6376 38.3352C25.3492 38.5683 25.3492 38.5683 23.9514 39.6976C23.7419 39.8917 23.4676 40 23.1806 40C22.555 40 22.0479 39.4925 22.0479 38.8668L22.0494 25.0354L20.5086 24.1447L19.7296 24.5927C19.6924 24.6187 19.7056 24.6111 18.9193 25.065C18.3652 25.3892 17.6674 25.2177 17.3486 24.6678C17.2729 24.5369 17.2729 24.5369 16.9146 23.9177L16.4843 23.1757C16.162 22.6195 16.3341 21.923 16.8842 21.6049C17.0188 21.5276 17.0188 21.5276 17.6409 21.1704L19.517 20.0903L19.8553 19.8994C20.2157 19.6429 20.6934 19.6195 21.0805 19.8429L21.5078 20.0919L34.2215 27.4397V26.7197Z"/></g></svg>

<svg xmlns="http://www.w3.org/2000/svg" fill="none" aria-hidden="true" viewBox="0 0 48 48"><path fill="#000" d="M19.705 33.999v2.832c0 .6-.655.97-1.177.655l-1.317-.846-.315-.178c-.023-.012-1.844-1.066-5.801-3.354l-.315-.18a1.999 1.999 0 0 1-1-1.745l-.002-7.053v-7.064c0-.375.106-.741.303-1.056a1.94 1.94 0 0 1 .771-.718l5.722-3.307.313-.183.315-.18 5.48-3.165.32-.189a1.998 1.998 0 0 1 1.094-.266c.371.018.738.14.994.323l5.703 3.296.316.178 5.797 3.353.316.18a1.999 1.999 0 0 1 1 1.745l.002 6.423a.77.77 0 0 1-1.157.667l-2.46-1.423a.77.77 0 0 1-.386-.667v-3.859l-5.01-2.897c-.043-.022-.14-.078-.411-.235L24 12.308l-4.992 2.885-.077.05-.353.205-4.797 2.77v11.824l5.012 2.898c.032.017.101.056.42.24l.104.092.085.114a.77.77 0 0 1 .303.613Zm14.517-7.28a.77.77 0 0 1 1.155-.667l2.46 1.417a.77.77 0 0 1 .387.668v2.347a.77.77 0 0 1-.22.538l-1.16 1.183c-.435.556-1.074.777-1.643.45l-9.144-5.302-.002 10.002c.032.376-.123.743-.417.98l-1.687 1.363a1.133 1.133 0 0 1-1.903-.831l.001-13.832-1.54-.89-.78.448c-.037.026-.023.018-.81.472a1.136 1.136 0 0 1-1.57-.397l-.434-.75-.43-.742a1.138 1.138 0 0 1 .4-1.571l.756-.435 1.876-1.08.338-.19c.36-.257.838-.28 1.226-.057l.427.249L34.22 27.44v-.72Z"/></svg>
